src/assets/filled/Speedometer.svg

<svg width="24" height="24" viewBox="0 0 24 24"  xmlns="http://www.w3.org/2000/svg">
<path d="M19.14 20.25C18.95 20.25 18.76 20.18 18.61 20.04C18.31 19.75 18.31 19.28 18.6 18.98C20.31 17.24 21.25 14.94 21.25 12.5C21.25 7.4 17.1 3.25 12 3.25C6.9 3.25 2.75 7.4 2.75 12.5C2.75 14.93 3.68 17.22 5.38 18.96C5.67 19.26 5.66 19.73 5.37 20.02C5.07 20.31 4.6 20.3 4.31 20.01C2.34 17.99 1.25 15.32 1.25 12.5C1.25 6.57 6.07 1.75 12 1.75C17.93 1.75 22.75 6.57 22.75 12.5C22.75 15.33 21.66 18.01 19.67 20.03C19.53 20.18 19.33 20.25 19.14 20.25Z" />
<path d="M12.0001 22.0002C14.143 22.0002 15.8801 20.2631 15.8801 18.1202C15.8801 15.9774 14.143 14.2402 12.0001 14.2402C9.85725 14.2402 8.12012 15.9774 8.12012 18.1202C8.12012 20.2631 9.85725 22.0002 12.0001 22.0002Z" />
<path d="M16 8.5C14.9 8.5 14 9.4 14 10.5V11.25C14 11.94 14.56 12.5 15.25 12.5H16C17.1 12.5 18 11.6 18 10.5C18 9.4 17.1 8.5 16 8.5Z" />
</svg>

<?xml version="1.0" encoding="UTF-8"?>
<svg width="24" height="24" viewBox="0 0 24 24" xmlns="http://www.w3.org/2000/svg">
 <path d="m19.14 20.25c-0.19 0-0.38-0.07-0.53-0.21-0.3-0.29-0.3-0.76-0.01-1.06 1.71-1.74 2.65-4.04 2.65-6.48 0-5.1-4.15-9.25-9.25-9.25s-9.25 4.15-9.25 9.25c0 2.43 0.93 4.72 2.63 6.46 0.29 0.3 0.28 0.77-0.01 1.06-0.3 0.29-0.77 0.28-1.06-0.01-1.97-2.02-3.06-4.69-3.06-7.51 0-5.93 4.82-10.75 10.75-10.75s10.75 4.82 10.75 10.75c0 2.83-1.09 5.51-3.08 7.53-0.14 0.15-0.34 0.22-0.53 0.22z"/>
 <path d="m12 22c2.1429 0 3.88-1.7371 3.88-3.88 0-2.1428-1.7371-3.88-3.88-3.88-2.1428 0-3.88 1.7372-3.88 3.88 0 2.1429 1.7371 3.88 3.88 3.88z"/>
 <path d="m16 8.5c-1.1 0-2 0.9-2 2v0.75c0 0.69 0.56 1.25 1.25 1.25h0.75c1.1 0 2-0.9 2-2s-0.9-2-2-2z"/>
</svg>
